public/images/check.svg

<svg width="26" height="26" viewBox="0 0 26 26" fill="none" xmlns="http://www.w3.org/2000/svg">
<g clip-path="url(#clip0_163_2740)">
<path d="M13 26C20.1797 26 26 20.1797 26 13C26 5.8203 20.1797 0 13 0C5.8203 0 0 5.8203 0 13C0 20.1797 5.8203 26 13 26Z" fill="#66BEDA"/>
<path fill-rule="evenodd" clip-rule="evenodd" d="M9.89325 17.7391L6.10585 13.8112C5.58733 13.2734 5.6171 12.4226 6.17206 11.9201C6.72703 11.4177 7.60506 11.4466 8.12357 11.9843L11.045 15.0141L15.6693 10.8275C15.7109 10.7898 15.7543 10.7553 15.7992 10.7235L17.9739 8.75474C18.5288 8.25229 19.4069 8.28121 19.9254 8.81897C20.4439 9.35665 20.414 10.2075 19.8592 10.71L13.2173 16.7233L13.2102 16.7159L10.9128 18.796L9.89325 17.7391Z" fill="white"/>
</g>
<defs>
<clipPath id="clip0_163_2740">
<rect width="26" height="26" fill="white"/>
</clipPath>
</defs>
</svg>

<svg xmlns="http://www.w3.org/2000/svg" width="26" height="26" fill="none" viewBox="0 0 26 26"><g clip-path="url(#a)"><path fill="#66beda" d="M13 26c7.18 0 13-5.82 13-13S20.18 0 13 0 0 5.82 0 13s5.82 13 13 13"/><path fill="#fff" fill-rule="evenodd" d="m9.893 17.74-3.787-3.93a1.313 1.313 0 0 1 .066-1.89 1.416 1.416 0 0 1 1.952.063l2.921 3.03 4.624-4.186q.063-.057.13-.104l2.175-1.97a1.416 1.416 0 0 1 1.951.065 1.313 1.313 0 0 1-.066 1.891l-6.642 6.013-.007-.007-2.297 2.08z" clip-rule="evenodd"/></g><defs><clipPath id="a"><path fill="#fff" d="M0 0h26v26H0z"/></clipPath></defs></svg>
